public/avatar/body/161.svg

<svg xmlns:xlink="http://www.w3.org/1999/xlink" height="82" width="84.85" xmlns="http://www.w3.org/2000/svg"><g transform="translate(37.4 42.25)"><use height="38" transform="translate(-11.95 -17.45)" width="32.05" xlink:href="#a"/><use height="38.95" transform="translate(-12.45 -17.95)" width="33.05" xlink:href="#b"/><use height="22.1" transform="translate(-16 1.9)" width="39.95" xlink:href="#c"/></g><defs><path d="M27.35 7.4q2.15 4.15 3.55 8.75 1.45 4.7 1.15 9.5-.35 4.95-4.2 8.1-3.8 3.2-8.75 4.05l-2.6.2q-3.6 0-7.05-1.15-4.65-1.6-7.1-5.5Q-.2 27.4.05 23q.2-4.4 2-9.3Q3.85 8.75 7 5.05 10.1 1.3 14.7.1l1.8-.1q1.9.05 3.7.8 4.75 2.05 7.15 6.6" fill="#795144" fill-rule="evenodd" transform="translate(-.05)" id="d"/><path d="M27.35 7.4Q24.95 2.85 20.2.8 17.55-.3 14.7.1 10.1 1.3 7 5.05q-3.15 3.7-4.95 8.65-1.8 4.9-2 9.3-.25 4.4 2.3 8.35 2.45 3.9 7.1 5.5 4.65 1.55 9.65.95 4.95-.85 8.75-4.05 3.85-3.15 4.2-8.1.3-4.8-1.15-9.5-1.4-4.6-3.55-8.75Z" fill="none" stroke="#000" stroke-linecap="round" stroke-linejoin="round" transform="translate(.45 .5)" id="e"/><use height="38" width="32.05" xlink:href="#d" id="a"/><use height="38.95" width="33.05" xlink:href="#e" id="b"/><g id="c" fill-rule="evenodd"><path d="m22.05 3.5 1.9 2.05-3.55 2.2q-.25 6.05-1.6 11.9l-2.45 1.55Q2.4 27.45-11 19.65l-1.6-11.9L-16 5.4l.05-.1.75-.95q1.7-1.65 3.85-2.45l.1.1 3 4.25Q-6.2 7.3-3.9 7.7l8.5 1.2q9.9.9 14.55-7 1.65.3 2.9 1.6M-5.9 21.05q9.3 3.15 18.8.35 2.6-.9 4.75-2.45Q19 13.15 19.1 7.1L22 5.25l-1.4-1-1.1-.85-1.85 2.75L16.2 7.6l-.8.4-2.05.65-.9.2-3.1.55-13.9-.65-.85-.2-1.75-.6-.35-.15-1.85-1.5-1.55-1.95-.7-1.1-3 1.95 2.95 1.9.55 6.55.3 2.05.6 3.15 2.8 1.6.6.25.9.35" fill="#1a171b" transform="translate(16 -1.9)"/><path d="m-10.8 15.7-.3-2.05 1.85-1.45-2.4-5.1-2.95-1.9 3-1.95.7 1.1 1.55 1.95 1.85 1.5-.45-.1v8.9l-2.85-.9m3.65-7.75 1.75.6.1 8.6v.05l-1.75-.4-.1-8.85m2.6.8 13.9.65 3.1-.55.1 2.2-9.4 1.1q.5.5 1.1.85 2 1.1 2.65 3.1l-.5.3q-5.2 1.95-10.75.9l-.2-8.55m17.9-.1L15.4 8l.05 2-1.95.85-.15-2.2M16.2 7.6l1.45-1.45-.7 1.15-.6 1.95-.15-1.65m-4.25 11.35q-5 1.8-10.25 1.45l-.15-.05q1.5-1.25 5.55-1 2.6-.45 5.15-1.8l-.3 1.4m1-.45.35-1.55q.95-1.15 1-2.85l.1-.45 1.1-.55-.6 4.25-1.95 1.15" fill="#ff0" transform="translate(16 -1.9)"/><path d="M20.6 4.25Q16.85 7 17.65 12.1q.5 3.35-1.95 5.6l.35-1.4.4-4.9-.1-1.9v-.25l.6-1.95.7-1.15L19.5 3.4l1.1.85m-6 14.25-1.95 1.1.3-1.1 1.95-1.15-.1.4-.2.75m-3 1.55Q5.8 22.1-.1 21.45l-3.25-.4-1-3.75q5.55 1.05 10.75-.9l.5-.3q-.65-2-2.65-3.1-.6-.35-1.1-.85l9.4-1.1.1 1.65-.4 4.85Q9.7 18.9 7.1 19.35q-4.05-.25-5.55 1l.15.05q5.25.35 10.25-1.45l-.25.8-.1.3m-15.85.9-1.8-.3-1-3.85 1.75.4 1.05 3.75m-3.15-.5-2.8-1.6-.6-3.15 2.85.9.15.9.9 3.05-.5-.1m-3.7-6.8-.55-6.55 2.4 5.1-1.85 1.45m24.6-2.75v-.05l1.95-.85.05 2.2v.9l-1.1.55-.1.45q-.05 1.7-1 2.85l.2-6.05" fill="gold" transform="translate(16 -1.9)"/><path d="m20.6 4.25 1.4 1-2.9 1.85q-.1 6.05-1.45 11.85-2.15 1.55-4.75 2.45-9.5 2.8-18.8-.35l-.15-.4 1.8.3.25.55.9.15-.05-.15-.2-.45 3.25.4q5.9.65 11.7-1.4l-.55 1.5.85-.1.75-1.85 1.95-1.1-.85 2.4.75-.3.2-.1.4-.5q.8-1 .6-2.3 2.45-2.25 1.95-5.6-.8-5.1 2.95-7.85M-6.8 20.7l-.6-.25.5.1.1.15" fill="#ff9500" transform="translate(16 -1.9)"/><path d="m13.75 20.9.85-2.4.2-.75-.15.8-.85 2.3-.05.05m-16.9.6.05.15-.9-.15.85.1v-.1M-7.5 7.8l.35.15.1 8.85-.9-.2V7.7l.45.1m2.1.75.85.2.2 8.55-.95-.15-.1-8.6m17.85.3.9-.2.15 2.2v.05l-.9.25.05 1.55-.1-1.65-.1-2.2M15.4 8l.8-.4.15 1.65v.25l-.85.65v2.05l-.05-2.2-.05-2" fill="#14fe04" transform="translate(16 -1.9)"/><path d="M15.7 17.7q.2 1.3-.6 2.3l-.4.5.95-2.7-1 .75.15-.8.1-.4.6-4.25v-2.95l.85-.65.1 1.9-.4 4.9-.35 1.4m-1.2 2.9-.75.3.05-.05.7-.25m-1.85-1-.75 1.85.75-2.15-.95.45.25-.8.3-1.4.4-4.85-.05-1.55.9-.25-.2 6.05-.35 1.55-.3 1.1m-16 1.45.2.45v.1l-.85-.1-.25-.55-1.05-3.75v-.05l.95.15 1 3.75m-2.7-.4.15.4-.9-.35-.1-.15-.9-3.05-.15-.9.9.2 1 3.85" fill="#00d904" transform="translate(16 -1.9)"/><path d="m14.7 20.5-.2.1-.7.25.85-2.3 1-.75-.95 2.7m-2.8.95-.85.1.55-1.5.1-.3.95-.45-.75 2.15" fill="#00c004" transform="translate(16 -1.9)"/></g></defs></svg>

<?xml version="1.0" encoding="UTF-8" standalone="no"?>
<svg xmlns:xlink="http://www.w3.org/1999/xlink" height="82.0px" width="84.85px" xmlns="http://www.w3.org/2000/svg">
  <g transform="matrix(1.0, 0.0, 0.0, 1.0, 37.4, 42.25)">
    <use height="38.0" transform="matrix(1.0, 0.0, 0.0, 1.0, -11.95, -17.45)" width="32.05" xlink:href="#sprite0"/>
    <use height="38.95" transform="matrix(1.0, 0.0, 0.0, 1.0, -12.45, -17.95)" width="33.05" xlink:href="#sprite1"/>
    <use height="22.1" transform="matrix(1.0, 0.0, 0.0, 1.0, -16.0, 1.9)" width="39.95" xlink:href="#shape2"/>
  </g>
  <defs>
    <g id="sprite0" transform="matrix(1.0, 0.0, 0.0, 1.0, -0.05, 0.0)">
      <use height="38.0" transform="matrix(1.0, 0.0, 0.0, 1.0, 0.05, 0.0)" width="32.05" xlink:href="#shape0"/>
    </g>
    <g id="shape0" transform="matrix(1.0, 0.0, 0.0, 1.0, -0.05, 0.0)">
      <path d="M27.35 7.4 Q29.5 11.55 30.9 16.15 32.35 20.85 32.05 25.65 31.7 30.6 27.85 33.75 24.05 36.95 19.1 37.8 L16.5 38.0 Q12.9 38.0 9.45 36.85 4.8 35.25 2.35 31.35 -0.2 27.4 0.05 23.0 0.25 18.6 2.05 13.7 3.85 8.75 7.0 5.05 10.1 1.3 14.7 0.1 L16.5 0.0 Q18.4 0.05 20.2 0.8 24.95 2.85 27.35 7.4" fill="#795144" fill-rule="evenodd" stroke="none"/>
    </g>
    <g id="sprite1" transform="matrix(1.0, 0.0, 0.0, 1.0, 0.45, 0.5)">
      <use height="38.95" transform="matrix(1.0, 0.0, 0.0, 1.0, -0.45, -0.5)" width="33.05" xlink:href="#shape1"/>
    </g>
    <g id="shape1" transform="matrix(1.0, 0.0, 0.0, 1.0, 0.45, 0.5)">
      <path d="M27.35 7.4 Q24.95 2.85 20.2 0.8 17.55 -0.3 14.7 0.1 10.1 1.3 7.0 5.05 3.85 8.75 2.05 13.7 0.25 18.6 0.05 23.0 -0.2 27.4 2.35 31.35 4.8 35.25 9.45 36.85 14.1 38.4 19.1 37.8 24.05 36.95 27.85 33.75 31.7 30.6 32.05 25.65 32.35 20.85 30.9 16.15 29.5 11.55 27.35 7.4 Z" fill="none" stroke="#000000" stroke-linecap="round" stroke-linejoin="round" stroke-width="1.0"/>
    </g>
    <g id="shape2" transform="matrix(1.0, 0.0, 0.0, 1.0, 16.0, -1.9)">
      <path d="M22.05 3.5 L23.95 5.55 20.4 7.75 Q20.15 13.8 18.8 19.65 L16.35 21.2 Q2.4 27.45 -11.0 19.65 L-12.6 7.75 -16.0 5.4 -15.95 5.3 -15.2 4.35 Q-13.5 2.7 -11.35 1.9 L-11.25 2.0 -8.25 6.25 Q-6.2 7.3 -3.9 7.7 L4.6 8.9 Q14.5 9.8 19.15 1.9 20.8 2.2 22.05 3.5 M-5.9 21.05 Q3.4 24.2 12.9 21.4 15.5 20.5 17.65 18.95 19.0 13.15 19.1 7.1 L22.0 5.25 20.6 4.25 19.5 3.4 17.65 6.15 16.2 7.6 15.4 8.0 13.35 8.65 12.45 8.85 9.35 9.4 -4.55 8.75 -5.4 8.55 -7.15 7.95 -7.5 7.8 -9.35 6.3 -10.9 4.35 -11.6 3.25 -14.6 5.2 -11.65 7.1 -11.1 13.65 -10.8 15.7 -10.2 18.85 -7.4 20.45 -6.8 20.7 -5.9 21.05" fill="#1a171b" fill-rule="evenodd" stroke="none"/>
      <path d="M-10.8 15.7 L-11.1 13.65 -9.25 12.2 -11.65 7.1 -14.6 5.2 -11.6 3.25 -10.9 4.35 -9.35 6.3 -7.5 7.8 -7.95 7.7 -7.95 16.6 -10.8 15.7 M-7.15 7.95 L-5.4 8.55 -5.3 17.15 -5.3 17.2 -7.05 16.8 -7.15 7.95 M-4.55 8.75 L9.35 9.4 12.45 8.85 12.55 11.05 3.15 12.15 Q3.65 12.65 4.25 13.0 6.25 14.1 6.9 16.1 L6.4 16.4 Q1.2 18.35 -4.35 17.3 L-4.55 8.75 M13.35 8.65 L15.4 8.0 15.45 10.0 13.5 10.85 13.35 8.65 M16.2 7.6 L17.65 6.15 16.95 7.3 16.35 9.25 16.2 7.6 M11.95 18.95 Q6.95 20.75 1.7 20.4 L1.55 20.35 Q3.05 19.1 7.1 19.35 9.7 18.9 12.25 17.55 L11.95 18.95 M12.95 18.5 L13.3 16.95 Q14.25 15.8 14.3 14.1 L14.4 13.65 15.5 13.1 14.9 17.35 12.95 18.5" fill="#ffff00" fill-rule="evenodd" stroke="none"/>
      <path d="M20.6 4.25 Q16.85 7.0 17.65 12.1 18.15 15.45 15.7 17.7 L16.05 16.3 16.45 11.4 16.35 9.5 16.35 9.25 16.95 7.3 17.65 6.15 19.5 3.4 20.6 4.25 M14.6 18.5 L12.65 19.6 12.95 18.5 14.9 17.35 14.8 17.75 14.6 18.5 M11.6 20.05 Q5.8 22.1 -0.1 21.45 L-3.35 21.05 -4.35 17.3 Q1.2 18.35 6.4 16.4 L6.9 16.1 Q6.25 14.1 4.25 13.0 3.65 12.65 3.15 12.15 L12.55 11.05 12.65 12.7 12.25 17.55 Q9.7 18.9 7.1 19.35 3.05 19.1 1.55 20.35 L1.7 20.4 Q6.95 20.75 11.95 18.95 L11.7 19.75 11.6 20.05 M-4.25 20.95 L-6.05 20.65 -7.05 16.8 -5.3 17.2 -4.25 20.95 M-7.4 20.45 L-10.2 18.85 -10.8 15.7 -7.95 16.6 -7.8 17.5 -6.9 20.55 -7.4 20.45 M-11.1 13.65 L-11.65 7.1 -9.25 12.2 -11.1 13.65 M13.5 10.9 L13.5 10.85 15.45 10.0 15.5 12.2 15.5 13.1 14.4 13.65 14.3 14.1 Q14.25 15.8 13.3 16.95 L13.5 10.9" fill="#ffd700" fill-rule="evenodd" stroke="none"/>
      <path d="M20.6 4.25 L22.0 5.25 19.1 7.1 Q19.0 13.15 17.65 18.95 15.5 20.5 12.9 21.4 3.4 24.2 -5.9 21.05 L-6.05 20.65 -4.25 20.95 -4.0 21.5 -3.1 21.65 -3.15 21.5 -3.35 21.05 -0.1 21.45 Q5.8 22.1 11.6 20.05 L11.05 21.55 11.9 21.45 12.65 19.6 14.6 18.5 13.75 20.9 14.5 20.6 14.7 20.5 15.1 20.0 Q15.9 19.0 15.7 17.7 18.15 15.45 17.65 12.1 16.85 7.0 20.6 4.25 M-6.8 20.7 L-7.4 20.45 -6.9 20.55 -6.8 20.7" fill="#ff9500" fill-rule="evenodd" stroke="none"/>
      <path d="M13.75 20.9 L14.6 18.5 14.8 17.75 14.65 18.55 13.8 20.85 13.75 20.9 M-3.15 21.5 L-3.1 21.65 -4.0 21.5 -3.15 21.6 -3.15 21.5 M-7.5 7.8 L-7.15 7.95 -7.05 16.8 -7.95 16.6 -7.95 7.7 -7.5 7.8 M-5.4 8.55 L-4.55 8.75 -4.35 17.3 -5.3 17.15 -5.4 8.55 M12.45 8.85 L13.35 8.65 13.5 10.85 13.5 10.9 12.6 11.15 12.65 12.7 12.55 11.05 12.45 8.85 M15.4 8.0 L16.2 7.6 16.35 9.25 16.35 9.5 15.5 10.15 15.5 12.2 15.45 10.0 15.4 8.0" fill="#14fe04" fill-rule="evenodd" stroke="none"/>
      <path d="M15.7 17.7 Q15.9 19.0 15.1 20.0 L14.7 20.5 15.65 17.8 14.65 18.55 14.8 17.75 14.9 17.35 15.5 13.1 15.5 12.2 15.5 10.15 16.35 9.5 16.45 11.4 16.05 16.3 15.7 17.7 M14.5 20.6 L13.75 20.9 13.8 20.85 14.5 20.6 M12.65 19.6 L11.9 21.45 12.65 19.3 11.7 19.75 11.95 18.95 12.25 17.55 12.65 12.7 12.6 11.15 13.5 10.9 13.3 16.95 12.95 18.5 12.65 19.6 M-3.35 21.05 L-3.15 21.5 -3.15 21.6 -4.0 21.5 -4.25 20.95 -5.3 17.2 -5.3 17.15 -4.35 17.3 -3.35 21.05 M-6.05 20.65 L-5.9 21.05 -6.8 20.7 -6.9 20.55 -7.8 17.5 -7.95 16.6 -7.05 16.8 -6.05 20.65" fill="#00d904" fill-rule="evenodd" stroke="none"/>
      <path d="M14.7 20.5 L14.5 20.6 13.8 20.85 14.65 18.55 15.65 17.8 14.7 20.5 M11.9 21.45 L11.05 21.55 11.6 20.05 11.7 19.75 12.65 19.3 11.9 21.45" fill="#00c004" fill-rule="evenodd" stroke="none"/>
    </g>
  </defs>
</svg>
